!!!OTL: SIND WIR VEREINT ZUR GUTEN STUNDE
!!!ARE: Europa, Mitteleuropa, Deutschland
!!!SCT: B0012
!!!YEM: Copyright 1995, estate of Helmut Schaffrath.
**kern
*ICvox
*Ivox
*M4/4
*k[b-e-]
*B-:
{8f
8b-
8cc
=1
4.dd
8dd
8cc
8ff
8ee-
8cc
=2
8b-
8f
4f
8r}
{8b-
8b-
8a
=3
4.g
8g
4cc
4cc
=4
2f
8r}
{8f
8b-
8cc
=5
4.dd
8dd
8cc
8ff
8ee-
8cc
=6
8b-
8f
4f
8r}
{8b-
8b-
8a
=7
4.g
8g
4cc
4cc
=8
2f
8r}
{8f
8a
8b-
=9
4.cc
8a
8b-
8dd
8ff
8dd
=10
8cc
8a
4f
8r}
{8f
8d
8f
=11
4.b-
8b-
8b-
8dd
8ff
8dd
=12
2cc
8r}
{8dd
8dd
8ee-
=13
4.ff
8ee-
8dd
8cc
8b-
8a
=14
8a
8g
4g
8r}
{8ee-
8cc
8dd
=15
4ee-
4ff
4dd
4cc
=16
2b-
8r}
{8dd
8dd
8ee-
=17
4.ff
8ee-
8dd
8cc
8b-
8a
=18
8a
8g
4g
8r}
{8ee-
8cc
8dd
=19
4ee-
4ff
4dd
4cc
=20
2b-
8r}
==
!!!AGN: politisch, national, Vaterlands - Lied, Studenten - Lied
!!!ONB: ESAC (Essen Associative Code) Database: BOEHME
!!!AMT: simple quadruple
!!!AIN: vox
!!!EED: Helmut Schaffrath
!!!EEV: 1.0
*-
